!!!!SEGMENT: pl-gd--ee-2628--006-021_stabile-annibale--il-terzo-libro-de-madrigali-a-cinque-voci-di-cipresso-e-di-falce.krn
!!!cenid: 15xx:1088
!!!COM: Stabile, Annibale
!!!COM-rismID: pe30009662
!!!CDT: ~1535-1595/04
!!!CNT: Italian
!!!GTL: Il terzo libro de madrigali a cinque voci
!!!OTL: Di Cipresso e di falce
!!!OMV: 021
!!!PDT: 1585
!!!AGN:
!!!SMS-siglum: PL-GD
!!!SMS-shelfmark: Ee 2628
!!!SMS-shelfwork: 006-021 G
!!!SMS-variant:
!!!SMS-altvar:
!!!NIFC-rismSourceID: 990060530
!!!NIFC-islandoraID: pl-gd:66139
!!!URL-pdf-islandora: https://repozytorium.nifc.pl/islandora/object/pl-gd%3A66139/datastream/PDF/view
!!!URL-scan: https://polish.musicsources.pl/pl/lokalizacje/galeria/klocki-introligatorskie/673 @EN{Scan on Polish Music Herritage in Open Access Website} @PL{Skany w portalu Dziedzictwo Muzyki Polskiej w otwartym dostępie}
!!!ONB-nifc: UWAGA: Canto: s. 90-101, Tenore: s. 246-257, Basso: s. 402-413, Quinto: s. 724-735. Dla głosu Alto proszę skorzystać z https://pbc.gda.pl/dlibra/publication/87582/edition/79411/content, str. 25-48. Uwaga: utwory podzielone wg spisu treści dostępnych na końcu ksiąg – proszę sprawdzać sąsiednie tytuły. Głos Quinto proszę umieszczać wg ambitusu (może się różnić w zależności od utworu).
!!!AIN: 1 alto 1 bass 1 soprn 1 tenor 1 vox
!!!key: a
**kern	**text	**kern	**text	**kern	**text	**kern	**text	**kern	**text
*part5	*part5	*part4	*part4	*part3	*part3	*part2	*part2	*part1	*part1
*staff5	*staff5	*staff4	*staff4	*staff3	*staff3	*staff2	*staff2	*staff1	*staff1
*I"BASSO	*	*I"TENORE	*	*I"ALTO	*	*I"QVINTO	*	*I"CANTO	*
*I'B	*	*I'T	*	*I'A	*	*I'V	*	*I'S	*
*ICvox	*	*ICvox	*	*ICvox	*	*ICvox	*	*ICvox	*
*Ibass	*	*Itenor	*	*Ialto	*	*Ivox	*	*Isoprn	*
*clefF4	*	*clefC4	*	*clefC3	*	*clefC4	*	*clefC1	*
*k[]	*	*k[]	*	*k[]	*	*k[]	*	*k[]	*
*a:	*	*a:	*	*a:	*	*a:	*	*a:	*
*M2/1	*	*M2/1	*	*M2/1	*	*M2/1	*	*M2/1	*
*met(C)	*	*met(C)	*	*met(C)	*	*met(C)	*	*met(C)	*
=1-	=1-	=1-	=1-	=1-	=1-	=1-	=1-	=1-	=1-
!LO:TX:b:i:t=DI Cipreſſo e di Salce	!	!	!	!	!	!	!	!	!
00r	.	1A	DI	1e	DI	2r	.	1a	DI
.	.	.	.	.	.	2c\	DI	.	.
.	.	2E/	Cip-	2e\	Cip-	4B\	Cip-	2g/	Cip-
.	.	.	.	.	.	2c\	-reſ-	.	.
.	.	2.F/	-reſ-	2.A/	-reſ-	.	.	2.f/	-reſ-
.	.	.	.	.	.	4c\	-ſo	.	.
=2-	=2-	=2-	=2-	=2-	=2-	=2-	=2-	=2-	=2-
.	.	.	.	.	.	2d\	di	.	.
.	.	4F/	-ſo	4A/	-ſo	.	.	4a\	-ſo
.	.	2E/	di	2B/	di	2.e\	Sal-	2g/	di
.	.	1A	Sal-	2.c/	Sal-	.	.	2.e/	Sal-
.	.	.	.	.	.	4d\	.	.	.
.	.	.	.	.	.	1c\	.	.	.
.	.	.	.	4d\	.	.	.	4f/	.
=3-	=3-	=3-	=3-	=3-	=3-	=3-	=3-	=3-	=3-
00r	.	1G	-ce	2e\	.	.	.	1g	.
.	.	.	.	2d\	-ce	2B\	-ce	.	.
.	.	4r	.	2r	.	1r	.	1g	-ce
.	.	4c\	Fa	.	.	.	.	.	.
.	.	2B\	pur	4r	.	.	.	.	.
.	.	.	.	4g\	Fa	.	.	.	.
=4-	=4-	=4-	=4-	=4-	=4-	=4-	=4-	=4-	=4-
.	.	4A/	il	4f\	pur	1r	.	4r	.
.	.	2A/	ro-	4e\	il	.	.	4cc\	Fa
*	*	*	*	*custos:e	*	*	*	*	*
!	!	!	!	!LO:LB:g=original	!	!	!	!	!
.	.	.	.	2.e\	ro-	.	.	2b\	pur
.	.	4G#X/	-go	.	.	.	.	.	.
*	*	*custos:A	*	*	*	*custos:c	*	*custos:a	*
!	!	!LO:LB:g=original	!	!	!	!LO:LB:g=original	!	!LO:LB:g=original	!
.	.	4A/	mio	.	.	2r	.	4a\	il
.	.	4B\	Mor-	4d\	-go	.	.	2g/	ro-
.	.	4c\	-te	4e\	mio	4r	.	.	.
.	.	4A/	ſu-	4c/	Mor-	2c\	Fa	4f/	-go
=5-	=5-	=5-	=5-	=5-	=5-	=5-	=5-	=5-	=5-
00r	.	4.Gny/	-per-	2d\	-te	.	.	2g/	mio
.	.	.	.	.	.	2B\	pur	.	.
.	.	16F/	.	.	.	.	.	.	.
.	.	16G/	.	.	.	.	.	.	.
.	.	2A/	.	2c/	ſu-	.	.	2e/	Mor-
.	.	.	.	.	.	4A/	il	.	.
.	.	2E/	-ba	2B/	-per-	4A/	ro-	4e/	-te
.	.	.	.	.	.	4G#X/	-go	2ee\	Mor-
.	.	4r	.	4c/	-ba	4A/	mio	.	.
*	*	*	*	*	*ij	*	*	*	*
.	.	4e\	Mor-	4G/	Mor-	4E/	Mor-	2cc\	-te
=6-	=6-	=6-	=6-	=6-	=6-	=6-	=6-	=6-	=6-
.	.	4d\	-te	4A/	-te	4F/	-te	.	.
.	.	4e\	ſu-	4B/	ſu-	4Gny/	ſu-	4b\	ſu-
.	.	2c\	-per-	2e\	-per-	2A/	-per-	2.a\	-per-
*	*	*custos:B	*	*	*	*	*	*	*
!	!	!LO:LB:g=original	!	!	!	!	!	!	!
.	.	1B	-ba	1e	-ba	1E	-ba	.	.
.	.	.	.	.	.	.	.	8g#X/	.
.	.	.	.	.	.	.	.	8f#X/	.
.	.	.	.	.	.	.	.	2g#X/	.
*	*	*	*	*	*Xij	*	*	*custos:a	*
!	!	!	!	!	!	!	!	!LO:LB:g=original	!
=7-	=7-	=7-	=7-	=7-	=7-	=7-	=7-	=7-	=7-
1AA	Con	2r	.	2r	.	2r	.	1a	-ba
.	.	2c\	Con	2e\	Con	2A/	Con	.	.
*	*	*	*	*custos:e	*	*custos:G	*	*	*
!	!	!	!	!LO:LB:g=original	!	!LO:LB:g=original	!	!	!
2.C/	l`in-	2.c\	l`in-	2.e\	l`in-	2.G/	l`in-	1r	.
4C/	-nui-	4c\	-nui-	4e\	-nui-	4G/	-nui-	.	.
=8-	=8-	=8-	=8-	=8-	=8-	=8-	=8-	=8-	=8-
2C/	-da	2c\	-da	2e\	-da	4G/	-da	1r	.
.	.	.	.	.	.	4A/	tua	.	.
2D/	tua	2A/	tua	2d\	tua	2F/	fal-	.	.
4C/	fal-	1.c	fal-	4e\	fal-	1E	-ce	2r	.
4BB/	.	.	.	4d\	.	.	.	.	.
*custos:AA	*	*	*	*	*	*	*	*	*
!LO:LB:g=original	!	!	!	!	!	!	!	!	!
4AA/	.	.	.	4c\	.	.	.	2a\	Con
4BB/	.	.	.	4d\	.	.	.	.	.
=9-	=9-	=9-	=9-	=9-	=9-	=9-	=9-	=9-	=9-
*	*	*	*	*lig	*	*	*	*	*
4C/	.	.	.	1e	.	0r	.	2.gny/	l`in-
4D/	.	.	.	.	.	.	.	.	.
4.E\	.	2B\	-ce	.	.	.	.	.	.
.	.	.	.	.	.	.	.	4g/	-ui-
8F\	.	.	.	.	.	.	.	.	.
4G\	.	1r	.	1d	.	.	.	4g/	-da
8F\	.	.	.	.	.	.	.	4a\	tua
8E\	.	.	.	.	.	.	.	.	.
2D\	.	.	.	.	.	.	.	2fny/	fal-
*	*	*	*	*Xlig	*	*	*	*	*
=10-	=10-	=10-	=10-	=10-	=10-	=10-	=10-	=10-	=10-
1AA	-ce	2r	.	1c#X	-ce	1r	.	1e	-ce
.	.	2A/	Pri-	.	.	.	.	.	.
1r	.	4G/	-ma	1r	.	4r	.	1r	.
.	.	4G/	ch`io	.	.	4e\	Pri-	.	.
.	.	2F/	ſcuo-	.	.	4d\	-ma	.	.
.	.	.	.	.	.	4d\	ch`io	.	.
=11-	=11-	=11-	=11-	=11-	=11-	=11-	=11-	=11-	=11-
00r	.	4E/	-pra	0r	.	2c\	ſcuo-	1r	.
.	.	2A/	la	.	.	.	.	.	.
.	.	.	.	.	.	4B\	-pra	.	.
.	.	4G/	mia	.	.	4e\	la	.	.
.	.	4F/	pe-	.	.	4d\	mia	2r	.
.	.	4E/	-na a-	.	.	2c\	pe-	.	.
*	*	*custos:A	*	*	*	*	*	*	*
!	!	!LO:LB:g=original	!	!	!	!	!	!	!
.	.	2A/	-cer-	.	.	.	.	1cc\	Pri-
.	.	.	.	.	.	4A/	-na a-	.	.
=12-	=12-	=12-	=12-	=12-	=12-	=12-	=12-	=12-	=12-
.	.	1G	-ba	2r	.	2e\	-cer-	.	.
.	.	.	.	2g\	Pri-	1d	-ba	4b\	-ma
.	.	.	.	.	.	.	.	4b\	ch`io
.	.	1r	.	4f\	-ma	.	.	2a\	ſcuo-
.	.	.	.	4f\	ch`io	.	.	.	.
.	.	.	.	2e\	ſcuo-	2r	.	4g/	-pra
.	.	.	.	.	.	.	.	2cc\	la
*	*	*	*	*	*	*custos:e	*	*	*
!	!	!	!	!	!	!LO:LB:g=original	!	!	!
=13-	=13-	=13-	=13-	=13-	=13-	=13-	=13-	=13-	=13-
0r	.	1r	.	4d\	-pra	00r	.	.	.
.	.	.	.	4g\	la	.	.	4b\	mia
*	*	*	*	*custos:f	*	*	*	*	*
!	!	!	!	!LO:LB:g=original	!	!	!	!	!
.	.	.	.	4f\	mia	.	.	4a\	pe-
.	.	.	.	2e\	pe-	.	.	4g/	-na a-
*	*	*	*	*	*	*	*	*custos:cc	*
!	!	!	!	!	!	!	!	!LO:LB:g=original	!
.	.	2r	.	.	.	.	.	2cc\	-cer-
.	.	.	.	4a\	-na a-	.	.	.	.
.	.	2e\	Pri-	2g#X\	-cer-	.	.	2b\	-ba
=14-	=14-	=14-	=14-	=14-	=14-	=14-	=14-	=14-	=14-
2r	.	4d\	-ma	1a	-ba	.	.	0r	.
.	.	4d\	ch`io	.	.	.	.	.	.
2A\	Pri-	2c\	ſcuo-	.	.	.	.	.	.
*custos:G	*	*	*	*	*	*	*	*	*
!LO:LB:g=original	!	!	!	!	!	!	!	!	!
4G\	-ma	4B\	-pra	1r	.	.	.	.	.
4G\	ch`io	2e\	la	.	.	.	.	.	.
2F\	ſcuo-	.	.	.	.	.	.	.	.
.	.	4d\	mia	.	.	.	.	.	.
=15-	=15-	=15-	=15-	=15-	=15-	=15-	=15-	=15-	=15-
4E\	-pra	4c\	pe-	1r	.	1r	.	2r	.
2A\	la	4c\	-na a-	.	.	.	.	.	.
.	.	2B\	-cer-	.	.	.	.	4r	.
4G\	mia	.	.	.	.	.	.	4ee\	la
2F\	pe-	2A/	-ba	4r	.	2r	.	4dd\	mia
.	.	.	.	2a\	la	.	.	2cc\	pe-
2E\	-na a-	2r	.	.	.	2.e\	La	.	.
.	.	.	.	4gny\	mia	.	.	4b\	-na a-
=16-	=16-	=16-	=16-	=16-	=16-	=16-	=16-	=16-	=16-
1A	-cer-	2r	.	2f\	pe-	.	.	1cc	-cer-
.	.	.	.	.	.	4d\	mia	.	.
.	.	4r	.	2e\	-na a-	4c\	pe-	.	.
.	.	2e\	la	.	.	4A/	-na a-	.	.
0G	-ba	.	.	1g	-cer-	2B\	-cer-	2b\	-ba
.	.	2d\	mia	.	.	.	.	.	.
.	.	.	.	.	.	2G/	-ba	4r	.
*	*	*	*	*	*	*	*	*	*ij
.	.	2c\	pe-	.	.	.	.	2ee\	la
=17-	=17-	=17-	=17-	=17-	=17-	=17-	=17-	=17-	=17-
.	.	.	.	2g\	-ba	2r	.	.	.
.	.	4B\	-na a-	.	.	.	.	2dd\	mia
*	*	*custos:e	*	*	*ij	*	*ij	*	*
!	!	!LO:LB:g=original	!	!	!	!	!	!	!
.	.	2e\	-cer-	2.g\	la	4r	.	.	.
.	.	.	.	.	.	2e\	la	2cc\	pe-
1r	.	0E	-ba	.	.	.	.	.	.
.	.	.	.	4g\	mia	4d\	mia	2b\	-na
.	.	.	.	4e\	pe-	4c\	pe-	.	.
.	.	.	.	4e\	-na a-	4c\	-na a-	2a\	a-
=18-	=18-	=18-	=18-	=18-	=18-	=18-	=18-	=18-	=18-
1r	.	.	.	1e	-cer-	1B	-cer-	.	.
.	.	.	.	.	.	.	.	8g#X/	-cer-
.	.	.	.	.	.	.	.	8f#X/	.
.	.	.	.	.	.	.	.	2g#X/	.
*	*	*	*	*	*	*	*	*custos:a	*
!	!	!	!	!	!	!	!	!LO:LB:g=original	!
2r	.	1r	.	2e\	-ba	2A/	-ba	2a\	-ba
*	*	*	*	*	*Xij	*	*Xij	*	*
2AA/	Che	.	.	2cny/	Che	2A/	Che	4r	.
*	*	*	*	*	*	*	*	*	*Xij
.	.	.	.	.	.	.	.	4e/	Che
*	*	*	*	*custos:c	*	*	*	*	*
!	!	!	!	!LO:LB:g=original	!	!	!	!	!
=19-	=19-	=19-	=19-	=19-	=19-	=19-	=19-	=19-	=19-
4C/	s`io	1r	.	4c/	s`io	4G/	s`io	4e/	s`io
4E\	la	.	.	4B/	la	4G/	la	4gny/	la
2D/	ſcuo-	.	.	2d\	ſcuo-	4.A/	ſcuo-	2fny/	ſcuo-
.	.	.	.	.	.	8B\	.	.	.
*	*	*	*	*	*	*custos:c	*	*	*
!	!	!	!	!	!	!LO:LB:g=original	!	!	!
2C/	-pro	4r	.	1G	-pro	8c\	.	2e/	-pro
.	.	.	.	.	.	8d\	.	.	.
.	.	4c\	che	.	.	2e\	.	.	.
4.E\	queſ-	4B\	s`io	.	.	.	.	4.g/	queſ-
.	.	4e\	la	.	.	4B\	-pro	.	.
8E\	-ta e	.	.	.	.	.	.	8g/	-ta e
*custos:F	*	*	*	*	*	*	*	*	*
!LO:LB:g=original	!	!	!	!	!	!	!	!	!
=20-	=20-	=20-	=20-	=20-	=20-	=20-	=20-	=20-	=20-
4F\	l`al-	2d\	ſcuo-	0r	.	1r	.	4a\	l`al-
4G\	-tra e-	.	.	.	.	.	.	4b\	-tra e-
2A\	-ta-	2c\	-pro	.	.	.	.	2cc\	-ta-
2E\	-de	2.B\	queſ-	.	.	4r	.	4g/	-de
.	.	.	.	.	.	4E/	Che	4g/	Che
2r	.	.	.	.	.	4E/	s`io	4g/	s`io
.	.	4B\	-ta e	.	.	4G/	la	4b\	la
=21-	=21-	=21-	=21-	=21-	=21-	=21-	=21-	=21-	=21-
0r	.	4c\	l`al-	2r	.	2F/	ſcuop-	2a\	ſcuop-
.	.	4d\	-tra e-	.	.	.	.	.	.
.	.	2e\	-ta-	4r	.	2E/	-ro	2g\	-ro
.	.	.	.	4e\	Che	.	.	.	.
.	.	2E/	-de	4e\	s`io	4.G/	queſ-	4.b\	queſ-
.	.	.	.	4g\	la	.	.	.	.
.	.	.	.	.	.	8G/	-ta e	8b\	-ta e
*	*	*	*	*	*	*	*	*custos:cc	*
!	!	!	!	!	!	!	!	!LO:LB:g=original	!
.	.	2r	.	2f\	ſcuo-	4A/	l`al-	4cc\	l`al-
.	.	.	.	.	.	4B\	-tra e-	4dd\	-tra e-
=22-	=22-	=22-	=22-	=22-	=22-	=22-	=22-	=22-	=22-
4r	.	2r	.	4e\	-pro	2c\	-ta-	2ee\	-ta-
8E\	Mo-	.	.	2g\	queſ-	.	.	.	.
8F\	-ri-	.	.	.	.	.	.	.	.
2G\	-ra	4r	.	.	.	2B\	-de	2dd\	-de
.	.	8B\	Mo-	4g\	-ta	.	.	.	.
.	.	8c\	-ri-	.	.	.	.	.	.
*	*	*custos:d	*	*	*	*	*	*	*
!	!	!LO:LB:g=original	!	!	!	!	!	!	!
4D/	per	4d\	-ra	4f\	e	1r	.	2r	.
4E\	pie-	4.c\	per	8e\	l`al-	.	.	.	.
.	.	.	.	8d\	.	.	.	.	.
2F\	-ta-	.	.	4c/	.	.	.	4r	.
.	.	8B\	pie-	.	.	.	.	.	.
.	.	4A/	-ta-	4d\	-tra e-	.	.	8a\	Mo-
.	.	.	.	.	.	.	.	8b\	-ri-
=23-	=23-	=23-	=23-	=23-	=23-	=23-	=23-	=23-	=23-
2.E\	-de	4G/	-de	2e\	-ta-	4r	.	4cc\	-ra
.	.	8E/	Mo-	.	.	8G/	Mo-	2b\	per
.	.	8F/	-ri-	.	.	8A/	-ri-	.	.
*	*ij	*	*	*	*	*custos:B	*	*	*
!	!	!	!	!	!	!LO:LB:g=original	!	!	!
.	.	4G/	-ra	2e\	-de	4B\	-ra	.	.
8AA/	Mo-	4A/	per	.	.	4c\	per	4a\	pie-
8BB/	-ri-	.	.	.	.	.	.	.	.
*	*	*	*	*custos:d	*	*	*	*	*
!	!	!	!	!LO:LB:g=original	!	!	!	!	!
4C#X/	-ra	4E/	pie-	4r	.	2A/	pie-	8a\	-ta-
.	.	.	.	.	.	.	.	8g\	.
2D/	per	4.F/	-ta-	8d\	Mo-	.	.	8f/	.
.	.	.	.	8e\	-ri-	.	.	8e/	.
.	.	.	.	4f\	-ra	1.A\	-ta-	4d/	.
.	.	8D/	.	.	.	.	.	.	.
4C#X/	pie-	8A/	.	2e\	per	.	.	4e/	de
.	.	8G/	.	.	.	.	.	.	.
*custos:D	*	*	*	*	*	*	*	*	*ij
!LO:LB:g=original	!	!	!	!	!	!	!	!	!
=24-	=24-	=24-	=24-	=24-	=24-	=24-	=24-	=24-	=24-
2D/	-ta-	8F/	.	.	.	.	.	4r	.
.	.	8E/	.	.	.	.	.	.	.
.	.	4F/	.	4d\	pie-	.	.	8a\	Mo-
.	.	.	.	.	.	.	.	8b\	ri-
2AA/	-de	2E/	-de	2e\	-ta-	.	.	2cc\	-ra
*	*Xij	*	*	*	*	*	*	*custos:b	*
!	!	!	!	!	!	!	!	!LO:LB:g=original	!
1r	.	4G/	per	1e	-de	1E	-de	4b\	per
.	.	4c\	pie-	.	.	.	.	4a\	pie-
.	.	2B\	-ta	.	.	.	.	2g#X/	-ta-
*	*	*custos:A	*	*	*	*	*	*	*
!	!	!LO:LB:g=original	!	!	!	!	!	!	!
=25-	=25-	=25-	=25-	=25-	=25-	=25-	=25-	=25-	=25-
4r	.	4A\	de	2e\	et	4r	.	1a	-de
4AA/	et	4c#X\	et	.	.	4A/	et	.	.
4.D/	tu	4.d\	tu	4.f#X\	tu	4.A/	tu	.	.
8D/	non	8d\	non	8f#\	non	8A/	non	.	.
4D/	po-	4d\	pot-	4f#\	po-	4A/	po-	1r	.
4Cny/	-trai	4e\	-rai	4g\	-trai	4c\	-trai	.	.
2G\	po-	2d\	po-	2g\	po-	2B\	po-	.	.
*	*	*	*	*	*	*	*	*	*Xij
=26-	=26-	=26-	=26-	=26-	=26-	=26-	=26-	=26-	=26-
2C/	-i	2cny\	-i	4g\	-i	4c\	-i	4r	.
.	.	.	.	2e\	Far	2c\	Far	2gny/	Far
2r	.	2r	.	.	.	.	.	.	.
.	.	.	.	4d\	in	4B\	in	4g/	in
4r	.	1r	.	2e\	al-	2A/	al-	2cc\	al-
2A\	Far	.	.	.	.	.	.	.	.
.	.	.	.	4e\	-tri i	4E/	-tri	4cc\	-tri i
4G#X\	in	.	.	4e\	mor-	4E/	mor-	4b\	mor-
*	*	*	*	*custos:c	*	*	*	*	*
!	!	!	!	!LO:LB:g=original	!	!	!	!	!
=27-	=27-	=27-	=27-	=27-	=27-	=27-	=27-	=27-	=27-
2A\	al-	2r	.	4c/	-ta-	2e\	-ta-	2.a\	-ta-
.	.	.	.	4c/	-li vf-	.	.	.	.
*	*	*	*	*	*	*custos:d	*	*	*
!	!	!	!	!	!	!LO:LB:g=original	!	!	!
2D/	-tri i	4r	.	4fny\	-fi-	4d\	-li	.	.
.	.	2d\	Far	4f\	-ci	2A/	vf-	4a\	-li
2AA/	mor-	.	.	2e\	tuo-	.	.	4a\	vf-
.	.	4c#X\	in	.	.	4E/	-fi-	4a\	-fi-
2.D/	-ta-	2d\	al-	2A/	-i	2.F/	-ci	2a\	-ci
=28-	=28-	=28-	=28-	=28-	=28-	=28-	=28-	=28-	=28-
.	.	2A/	-tri i	4r	.	.	.	0a	tuoi
4D/	-li vf-	.	.	4f\	Far	4D/	tuoi	.	.
*custos:C#	*	*	*	*	*	*	*	*	*
!LO:LB:g=original	!	!	!	!	!	!	!	!	!
4C#X/	-fi-	2E/	mor-	4e\	in	4.A/	Far	.	.
4C#/	-ci	.	.	4.e\	al-	.	.	.	.
.	.	.	.	.	.	8G/	in	.	.
2D/	tuo-	2.A/	-ta-	.	.	2F/	al-	.	.
.	.	.	.	8d\	-tri	.	.	.	.
.	.	.	.	4d\	i	.	.	.	.
2AA/	-i	.	.	4c/	mor-	4E/	-tri i	.	.
.	.	4A/	-li	4c/	-ta-	4e\	mor-	.	.
=29-	=29-	=29-	=29-	=29-	=29-	=29-	=29-	=29-	=29-
2r	.	4G#X/	vf-	4B/	-li vf-	4.e\	-ta-	2r	.
.	.	4G#/	-fi-	4B/	-fi-	.	.	.	.
.	.	.	.	.	.	8d\	.	.	.
2AA/	vf-	2A/	-ci	2e\	-ci	4c\	.	4r	.
.	.	.	.	.	.	4A/	-li vf-	4cc\	vf-
*	*	*	*	*	*	*	*	*custos:b	*
!	!	!LO:N:vis=00	!	!LO:N:vis=00	!	!	!	!LO:LB:g=original	!
4GG#X/	-fi-	1%5E	tuoi	1%5e	tuoi	4B\	-fi-	4b\	-fi-
4GG#/	-ci	.	.	.	.	4B\	-ci	4b\	-ci
2AA/	tuo-	.	.	.	.	2c\	tuo-	2a\	tuo-
=30-	=30-	=30-	=30-	=30-	=30-	=30-	=30-	=30-	=30-
00EE	-i.	.	.	.	.	00B	-i.	00g#X/	-i.
==	==	==	==	==	==	==	==	==	==
*-	*-	*-	*-	*-	*-	*-	*-	*-	*-
!!!system-decoration: [(s1,s2,s3,s4,s5)]
!!!ENC: Filip Voros
!!!END: 2022-07-12
!!!ENC: Natalia Wrzos
!!!END: 2022-08-04
